X: 1
T: Martin Haye's
M: 4/4
L: 1/8
R: reel
K: Gmix
| dGGA GFDE | FDGE FDCF | DGGD GABc | dgfd c2dc |BGGA GFDE | FDGE FDCF | DGGD GABc | dgfd c2Bc | dg~g2 gfde | fage fedc | dGGD GABc | dgfd c2Bc | dg~g2 gfde | fage fedc | dGGD GABc | dgfd c2dc |
